X: 7
T:Bro
R:Hornpipe
B:Feadog Stain
M:4/4
L:1/8
Q:1/4=141
K:D
FG|ABAG FAde|fgfe dedA|BcdB ABDE|FEED E2FG|
ABAG FAde|fgfe dedA|BcdB ABDE|F2D2 D2:|
|:FG|agfd gfec|dcde fdAF|GABG FADF|EGgf eAce|
agfd gfec|dcde fdAF|GABG FADA|F2D2 D2:|
